<?xml version="1.0" encoding="UTF-8"?>
<map version="1.10" tiledversion="1.11.2" orientation="orthogonal" renderorder="right-down" width="60" height="60" tilewidth="16" tileheight="16" infinite="0" nextlayerid="2" nextobjectid="1">
 <tileset firstgid="1" source="dark_forest_tileset.tsx"/>
 <layer id="1" name="Tile Layer 1" width="60" height="60">
  <data encoding="csv">
202,49,193,70,71,72,229,48,202,49,422,423,424,425,426,427,422,423,424,425,426,427,422,48,202,202,202,49,427,422,423,424,425,426,427,422,423,424,425,426,427,422,423,424,425,426,427,422,423,424,425,426,427,422,423,422,48,202,202,202,
202,49,225,102,103,104,261,48,202,49,454,455,456,457,458,459,454,455,456,457,458,459,454,48,202,202,202,49,459,454,455,456,457,458,459,454,455,456,457,458,459,454,455,456,457,458,459,454,455,456,457,458,459,454,455,454,48,202,202,202,
202,49,257,70,71,72,197,48,202,49,486,487,488,489,490,491,486,487,488,489,490,491,486,48,202,202,202,49,491,486,487,488,489,490,491,486,487,488,489,490,491,486,487,488,489,490,491,486,487,488,489,490,491,486,487,486,48,296,297,298,
202,49,193,102,103,104,229,48,202,49,161,162,163,164,162,163,164,162,163,162,163,164,165,48,202,202,202,49,161,163,164,162,163,164,162,163,164,162,163,164,162,163,164,162,163,164,162,163,164,162,163,164,162,163,164,165,80,328,329,330,
202,49,225,70,71,72,261,48,202,49,193,168,11,11,11,11,11,11,11,11,11,166,197,48,202,202,202,49,193,168,11,104,12,11,12,11,12,12,11,12,11,12,11,11,12,12,11,12,11,12,11,12,11,11,166,197,359,360,361,362,
202,49,257,102,103,104,197,48,202,49,225,102,103,43,44,43,44,43,44,43,103,104,229,48,202,202,202,49,225,70,71,43,44,43,44,43,44,44,43,44,43,44,43,43,44,44,43,44,43,44,43,44,43,71,72,229,391,392,393,394,
202,49,193,70,71,72,229,48,202,49,257,70,71,231,76,75,76,75,76,230,71,72,261,48,202,202,202,49,257,102,103,231,76,75,76,75,76,76,75,76,75,76,75,75,76,76,75,76,75,76,75,76,230,103,104,261,423,424,425,426,
202,49,225,102,103,104,229,48,202,49,193,102,103,104,233,290,291,292,232,102,103,104,197,48,202,202,202,49,193,70,71,72,233,290,291,292,290,291,292,290,291,292,290,291,292,290,291,292,290,291,292,232,70,71,72,197,455,456,457,458,
202,49,257,70,71,72,261,48,202,49,225,70,71,72,229,16,264,17,225,70,71,72,229,48,202,202,202,49,225,102,103,104,229,262,263,264,265,266,267,262,263,264,265,266,267,262,263,264,265,266,267,193,102,103,104,229,487,488,489,490,
202,49,193,102,103,104,197,48,202,49,257,102,103,104,261,48,202,49,257,102,103,104,261,48,202,202,202,49,257,70,71,72,261,48,202,202,202,202,202,202,202,202,202,202,202,202,202,202,202,202,49,225,70,71,72,201,162,163,164,162,
202,49,225,70,71,72,229,48,202,49,193,70,71,72,197,48,202,49,193,70,71,72,197,48,202,202,202,49,193,102,103,104,229,48,202,202,202,202,202,202,202,202,202,202,202,202,202,202,202,202,49,257,102,103,199,12,11,12,11,12,
202,49,257,102,103,104,261,48,202,49,225,102,103,104,229,48,202,49,225,102,103,104,229,48,202,202,202,49,225,70,71,72,261,48,202,202,202,202,202,202,202,202,202,202,202,202,202,202,202,202,49,193,102,43,43,44,43,44,43,44,
202,49,193,70,71,72,197,48,202,49,257,70,71,72,261,48,202,49,257,70,71,72,261,48,202,202,202,49,257,102,103,104,197,48,202,202,202,202,202,202,202,202,202,202,202,202,202,202,202,202,49,225,8,75,75,76,75,76,75,76,
202,49,225,102,103,104,229,48,202,49,193,102,103,104,197,48,202,49,193,102,103,104,197,48,202,202,202,49,193,70,71,72,229,48,202,202,202,202,202,202,202,202,202,202,202,202,202,202,202,202,49,289,290,291,292,290,291,292,290,291,
202,49,257,70,71,72,261,48,202,49,225,70,71,72,229,48,202,49,225,70,71,72,229,48,202,202,202,49,225,102,103,104,261,48,202,202,202,202,202,202,202,202,202,202,202,202,202,202,202,202,202,262,263,264,265,266,267,267,262,263,
202,49,193,102,103,104,197,48,202,49,257,102,103,104,261,48,202,49,257,102,103,104,261,48,202,202,202,49,225,102,103,104,261,48,202,202,202,202,202,202,202,202,202,202,202,202,202,202,202,202,202,202,202,202,202,202,202,202,202,202,
202,49,225,70,71,72,229,48,202,49,193,70,71,72,197,48,202,49,193,70,71,72,197,48,202,202,202,49,257,70,71,72,197,327,328,329,330,331,326,327,328,329,330,331,326,326,327,328,329,330,331,202,202,202,202,202,202,202,202,202,
202,49,257,102,103,104,261,48,202,49,225,102,103,104,229,48,202,49,225,102,103,104,229,48,202,202,202,49,193,102,103,104,229,359,360,361,362,363,358,359,360,361,362,363,358,358,359,360,361,362,363,358,48,202,202,202,202,202,202,202,
202,49,193,70,71,72,197,48,202,49,257,70,71,72,261,48,202,49,257,70,71,72,261,48,202,202,202,49,225,70,71,72,261,391,392,393,394,395,390,391,392,393,394,395,390,390,391,392,393,394,395,390,48,202,202,202,202,202,202,202,
202,49,225,102,103,104,229,48,202,49,193,102,103,104,197,48,202,49,193,102,103,104,197,48,202,202,202,49,257,102,103,104,197,423,424,425,426,427,422,423,424,425,426,427,422,422,423,424,425,426,427,422,48,202,202,202,202,202,202,202,
202,49,257,70,71,72,261,48,202,49,225,70,71,72,229,48,202,49,225,70,71,72,229,48,202,202,202,49,193,70,71,72,229,455,456,457,458,459,454,455,456,457,458,459,454,454,455,456,457,458,459,454,48,202,202,202,202,202,202,202,
202,49,193,102,103,104,197,48,202,49,257,102,103,104,261,48,202,49,257,102,103,104,261,48,202,202,202,49,225,102,103,104,261,487,488,489,490,491,486,487,488,489,490,491,486,486,487,488,489,490,491,486,48,202,202,202,202,202,202,202,
202,49,225,70,71,72,229,48,202,49,193,70,71,72,197,48,202,49,193,70,71,72,197,48,202,202,202,49,257,70,71,72,201,163,164,162,163,164,162,163,164,162,163,164,162,163,164,162,163,164,162,165,48,202,202,202,202,202,202,202,
202,49,257,102,103,104,261,48,202,49,225,102,103,104,229,48,202,49,225,102,103,104,229,48,202,202,202,49,193,102,103,199,11,12,11,12,12,11,12,11,12,11,11,12,12,11,12,11,12,11,166,229,48,202,202,202,202,202,202,202,
202,49,193,70,71,72,197,48,202,49,257,70,71,72,261,48,202,49,257,70,71,72,261,48,202,202,202,49,225,70,71,44,43,44,43,44,44,43,44,43,44,43,43,44,44,43,44,43,44,43,72,261,48,202,202,202,202,202,202,202,
202,49,225,102,103,104,229,48,202,49,193,102,103,104,197,48,202,49,193,102,103,104,197,48,202,202,202,49,257,8,75,76,75,76,75,76,76,75,76,75,76,75,75,76,76,75,76,75,230,103,104,197,48,202,202,202,202,202,202,202,
202,49,257,70,71,72,261,48,202,49,225,70,71,72,229,48,202,49,225,70,71,72,229,48,202,202,202,49,289,290,291,292,290,291,292,290,291,292,290,291,292,290,291,292,290,291,292,232,70,71,72,229,48,202,202,202,202,202,202,202,
202,49,193,102,103,104,197,48,202,49,257,102,103,104,261,48,202,49,257,102,103,104,261,48,202,202,202,202,262,263,264,265,266,267,262,263,264,265,266,267,262,262,263,264,265,266,267,257,102,103,104,261,48,202,202,202,202,202,202,202,
202,49,225,70,71,72,229,48,202,49,193,70,71,72,197,48,202,49,193,70,71,72,197,80,202,202,202,202,202,202,202,202,202,202,202,202,202,202,202,202,202,202,202,202,202,202,49,193,70,71,72,229,48,202,202,202,202,202,202,202,
202,49,257,102,103,104,261,80,327,81,225,102,103,104,229,48,202,49,225,102,103,104,229,294,295,296,297,298,202,294,295,296,202,202,295,296,297,298,202,48,202,202,202,202,202,202,49,225,102,103,104,261,48,202,202,202,202,202,202,202,
202,49,193,70,71,72,197,358,359,360,257,70,71,72,261,48,202,49,257,70,71,72,261,326,327,328,329,330,331,326,327,328,329,326,327,328,329,330,331,48,202,202,202,202,202,202,49,257,70,71,72,197,48,202,202,202,202,202,202,202,
202,49,225,102,103,104,229,390,391,392,193,102,103,104,197,48,202,49,193,102,103,104,197,358,359,360,361,362,363,358,359,360,361,358,359,360,361,362,363,48,202,202,202,202,202,202,49,193,102,103,104,229,48,202,202,202,202,202,202,202,
202,49,257,70,71,72,261,422,423,424,225,70,71,72,229,48,202,49,225,70,71,72,229,390,391,392,393,394,395,390,391,392,393,390,391,392,393,394,395,48,202,202,202,202,202,202,49,225,70,71,72,261,48,202,202,202,202,202,202,202,
202,49,193,102,103,104,197,454,455,456,193,102,103,104,261,48,202,49,257,102,103,104,261,422,423,424,425,426,427,422,423,424,425,422,423,424,425,426,427,48,202,202,202,202,202,202,49,257,70,71,72,197,48,202,202,202,202,202,202,202,
202,49,225,70,71,72,229,486,487,488,225,70,71,72,197,48,202,49,193,70,71,72,197,454,455,456,457,458,459,454,455,456,457,454,455,456,457,458,459,48,202,202,202,202,202,202,49,193,102,103,104,229,48,202,202,202,202,202,202,202,
202,49,257,102,103,104,201,162,163,164,200,102,103,104,229,48,202,49,225,102,103,104,229,486,487,488,489,490,491,486,487,488,489,486,487,488,489,490,491,48,202,202,202,202,202,202,49,225,102,103,104,261,48,202,202,202,202,202,202,202,
202,49,193,70,71,199,11,12,11,12,11,198,71,72,261,48,202,49,257,70,71,72,201,162,163,164,162,163,164,162,163,164,162,163,164,162,163,164,162,48,202,202,202,202,202,202,49,257,70,71,72,261,48,202,202,202,202,202,202,202,
202,49,225,102,103,43,43,44,43,44,43,44,103,104,197,48,202,49,193,102,103,199,12,11,12,11,12,11,11,12,11,12,11,12,11,11,12,11,166,48,202,202,202,202,202,202,49,225,102,103,104,197,48,202,202,202,202,202,202,202,
202,49,257,8,75,76,75,76,75,76,75,75,76,6,229,48,202,49,225,70,71,43,44,43,44,43,44,43,43,44,43,44,43,44,43,43,44,43,72,48,202,202,202,202,202,202,49,257,102,103,104,229,48,202,202,202,202,202,202,202,
202,49,289,290,291,292,290,291,292,290,291,292,290,291,293,48,202,49,257,8,75,76,76,75,76,75,230,71,231,76,75,76,75,76,75,75,230,71,72,80,327,328,326,327,328,329,81,193,70,71,72,261,48,202,202,202,202,202,202,202,
202,202,262,262,263,264,265,266,267,262,263,264,265,266,267,296,202,49,289,290,291,292,290,290,291,232,70,103,104,233,291,292,290,291,292,232,102,103,104,358,359,360,358,359,360,361,362,225,102,103,104,197,48,202,202,202,202,202,202,202,
202,202,202,202,202,202,202,202,202,202,202,202,202,294,295,296,297,298,262,263,264,265,266,265,17,193,102,71,72,197,262,263,264,265,266,225,70,71,72,390,391,392,390,391,392,393,394,257,70,71,72,229,48,202,202,202,202,202,202,202,
202,202,202,202,202,202,202,202,202,202,202,202,202,202,202,202,202,202,202,202,202,202,202,202,49,225,102,103,104,229,48,202,202,202,49,257,102,103,104,422,423,424,422,423,424,425,426,193,102,103,104,261,48,202,202,202,202,202,202,202,
202,202,202,327,328,329,330,331,326,327,328,329,330,331,326,327,328,329,330,326,327,328,329,330,81,193,70,71,72,261,48,202,202,202,49,193,70,71,72,454,455,456,454,455,456,457,458,225,102,103,104,197,48,202,202,202,202,202,202,202,
202,49,358,359,360,361,362,363,358,359,360,361,362,363,358,359,360,361,362,358,359,360,361,362,363,225,102,103,104,197,48,202,202,202,49,225,102,103,104,486,487,488,486,487,488,489,490,257,70,71,72,229,48,202,202,202,202,202,202,202,
202,49,390,391,392,393,394,395,390,391,392,393,394,395,390,391,392,393,394,390,391,392,393,394,395,257,70,71,72,229,48,202,202,202,49,257,70,71,72,162,163,164,162,163,164,162,163,164,102,103,104,261,48,202,202,202,202,202,202,202,
202,49,422,423,424,425,426,427,422,423,424,425,426,427,422,423,424,425,426,422,423,424,425,426,427,193,102,103,104,261,48,202,202,202,49,193,102,103,199,12,11,11,12,12,11,12,11,11,198,71,72,197,48,202,202,202,202,202,202,202,
202,49,454,455,456,457,458,459,454,455,456,457,458,459,454,455,456,457,458,454,455,456,457,458,459,225,70,71,72,197,48,202,202,202,49,225,70,71,43,44,43,43,44,44,43,44,43,43,43,103,104,229,48,202,202,202,202,202,202,202,
202,49,486,487,488,489,490,491,486,487,488,489,490,491,486,487,488,489,490,486,487,488,489,490,491,257,102,103,104,229,48,202,202,202,49,257,102,103,231,76,75,75,76,76,75,76,75,75,75,76,6,261,48,202,202,202,202,202,202,202,
202,49,161,163,164,162,163,164,162,163,164,162,163,164,162,163,164,162,163,164,162,163,164,162,163,200,70,71,72,261,48,202,202,202,49,193,70,71,72,233,290,291,292,290,291,292,290,291,292,290,291,293,48,202,202,202,202,202,202,202,
202,49,193,6,6,6,6,6,6,6,6,6,6,6,6,6,6,6,6,6,194,195,11,11,12,11,198,103,104,197,48,202,202,202,49,225,102,103,104,229,263,264,265,266,267,262,263,264,265,266,267,262,202,202,202,202,202,202,202,202,
202,49,225,6,6,6,6,6,6,6,6,6,6,6,6,6,6,6,6,6,226,227,43,43,44,43,44,43,46,229,48,202,202,202,49,257,70,71,72,261,327,328,329,330,331,326,327,328,329,330,331,326,327,328,329,330,331,326,327,328,
202,49,257,6,6,6,6,6,73,73,73,73,73,73,73,73,6,6,6,6,258,259,75,75,76,75,76,77,78,261,48,202,202,202,49,193,102,103,104,197,359,360,361,362,363,358,359,360,361,362,363,358,359,360,361,362,363,358,359,360,
202,49,193,6,6,6,6,6,73,73,6,6,6,73,6,6,6,6,6,6,233,290,291,292,290,291,292,290,291,293,48,202,202,202,49,225,70,71,72,229,455,456,457,458,459,454,455,456,457,458,459,454,455,456,457,458,459,454,455,456,
202,49,225,6,6,6,6,73,73,73,73,73,6,6,6,73,6,6,6,6,229,16,262,263,264,265,266,267,262,263,202,202,202,202,49,257,102,103,104,261,487,488,489,490,491,486,487,488,489,490,491,486,487,488,489,490,491,486,487,488,
202,49,257,6,6,6,73,73,6,6,6,73,73,73,73,73,73,6,6,6,261,48,294,295,296,297,298,299,294,295,202,202,202,202,49,193,70,71,72,201,163,164,162,163,164,162,163,164,162,163,164,162,163,164,162,163,164,162,163,164,
202,49,193,6,6,73,73,6,6,6,6,6,6,6,73,6,73,73,73,6,197,48,202,202,202,202,202,202,202,202,202,202,202,202,49,225,102,103,199,12,11,12,11,12,11,12,11,12,11,12,11,12,11,12,11,12,11,12,11,12,
202,49,225,6,6,73,6,6,6,6,73,73,6,73,73,6,6,6,6,6,229,48,202,202,202,202,202,202,202,202,202,202,202,202,49,257,70,43,43,44,43,44,43,44,43,44,43,44,43,44,43,44,43,44,43,44,43,44,43,44,
202,49,257,6,6,6,6,6,6,6,73,73,73,73,6,6,6,6,6,6,261,48,202,202,202,202,202,202,202,202,202,202,202,202,49,193,8,75,75,76,75,76,75,76,75,76,75,76,75,76,75,76,75,76,75,76,75,76,75,76,
202,49,289,291,292,290,291,292,290,291,292,290,291,292,290,291,292,290,291,292,293,48,202,202,202,202,202,202,202,202,202,202,202,202,49,289,290,291,292,290,291,292,290,291,292,290,291,292,290,291,292,290,291,292,290,291,292,290,291,292
</data>
 </layer>
</map>
